svg/fan_chevron_up.svg

<svg xmlns="http://www.w3.org/2000/svg" viewBox="0 0 24 24"><path d="M13 19c0-1.41.5-2.7 1.3-3.72-.13-.31-.27-.63-.44-.94.4-.34.71-.75.91-1.23.49.1 1.01.28 1.48.56a6 6 0 0 1 5.64.07c.06-.37.11-.78.11-1.24 0-3.58-3.97-4.37-7.67-2.37-.33-.4-.74-.71-1.22-.91.19-.93.63-1.98 1.62-2.47C17.09 5.57 17 2 12.5 2c-3.57 0-4.36 3.96-2.37 7.65-.41.32-.73.74-.92 1.22-.93-.19-1.98-.62-2.48-1.61C5.56 6.89 2 7 2 11.5c0 3.57 3.95 4.35 7.64 2.37.32.4.75.72 1.24.92-.2.92-.64 1.96-1.62 2.45C6.9 18.42 7 22 11.5 22c.81 0 1.5-.22 2-.59-.31-.74-.5-1.55-.5-2.41m-1-6c-.57 0-1-.45-1-1s.43-1 1-1c.54 0 1 .45 1 1s-.46 1-1 1m7 4.83L15.83 21l-1.42-1.41L19 15l4.59 4.59L22.17 21z"/></svg>

<?xml version="1.0" encoding="UTF-8"?><!DOCTYPE svg PUBLIC "-//W3C//DTD SVG 1.1//EN" "http://www.w3.org/Graphics/SVG/1.1/DTD/svg11.dtd"><svg xmlns="http://www.w3.org/2000/svg" xmlns:xlink="http://www.w3.org/1999/xlink" version="1.1" id="mdi-fan-chevron-up" width="24" height="24" viewBox="0 0 24 24"><path d="M13 19C13 17.59 13.5 16.3 14.3 15.28C14.17 14.97 14.03 14.65 13.86 14.34C14.26 14 14.57 13.59 14.77 13.11C15.26 13.21 15.78 13.39 16.25 13.67C17.07 13.25 18 13 19 13C20.05 13 21.03 13.27 21.89 13.74C21.95 13.37 22 12.96 22 12.5C22 8.92 18.03 8.13 14.33 10.13C14 9.73 13.59 9.42 13.11 9.22C13.3 8.29 13.74 7.24 14.73 6.75C17.09 5.57 17 2 12.5 2C8.93 2 8.14 5.96 10.13 9.65C9.72 9.97 9.4 10.39 9.21 10.87C8.28 10.68 7.23 10.25 6.73 9.26C5.56 6.89 2 7 2 11.5C2 15.07 5.95 15.85 9.64 13.87C9.96 14.27 10.39 14.59 10.88 14.79C10.68 15.71 10.24 16.75 9.26 17.24C6.9 18.42 7 22 11.5 22C12.31 22 13 21.78 13.5 21.41C13.19 20.67 13 19.86 13 19M12 13C11.43 13 11 12.55 11 12S11.43 11 12 11C12.54 11 13 11.45 13 12S12.54 13 12 13M19 17.83L15.83 21L14.41 19.59L19 15L23.59 19.59L22.17 21L19 17.83" /></svg>
